X: 141
T: A Costa De Galicia
R: waltz
M: 3/4
K: Dmajor
D3F|:A2AGA2-|A2DADF|G2GFG2-|GEC3E|G2GFG2|
E2A2G2|FGFED2-|DA,D3F|A2AGA2-|A2DADF|G2GFG2-|
GEC3E|G2GFG2|E2A2G2|FGFED2-|1 DA,D3F:|2 D6||
|:z2 A_B=c2|_B2A2_B2|A3GA2-|A6-|A2A_B=c2|
_B2A2=c2|_B3AG2-|G4 A2|G2 A_B=c2|_B2A2_B2|
A3GA2|=BAF2E2|D4G2-|G2E3D|C2E2D2-|1 D6:|2 D2||

